X:131
T:Fifty Cent Piece
C: Traditional
S:Fife & Drum tune learned from Paul Heasty
M:6/8
R:Jig
L:1/8
K:A
aga efg | aga e2f | =gfg dB=G | =gfg ef^g
aga efg | aga e2d | cBA BAG |[1 A3 A3 :|[2 A3 A2f |]
|: e2c cBA | e2c cBA | d2B BA=G | ABc def
e2c cBA | e^de a2=d | cBA BAG |[1 A3 A2f :|[2 A3 A3 |]

